X:1
T:Title
%%score 1 { 2 | 3 }
L:1/8
Q:1/4=98
M:4/4
K:C
V:1 treble nm="Grand Piano, Soprano"
V:2 bass nm="Choir Pad, Glory in the Highest"
V:3 bass 
V:1
 [Fd]2 [Fd]>[Fd] [Fd]2 [D_B]>[DA] | [_EG]3 [EF] [EF]2 z [EF] | [G_B]>[GB] [GB]>[GB] [EBd]3 [EBc] | %3
w: By~Henry~W.~Petrie * * * * *|||
 [EAc]6 F2 | [_Bd]2 [Bd]2 [B^ce]>[Bce] [Bce]>[Bce] | [_Bdf]2 [FB]2 [F=B_e]2 [GBd][GBd] | %6
w: |||
 [Gc_e]>[Gce] [_EG]>[EG] [EAc]3 [DF_B] | [DF_B]8 | [DF]2 (3[^C-E][CF][CG] [DF]2 (3[C-E][CF][CG] | %9
w: |||
 [DF]4 [Fd]4 | [Ed]>[Ec] [EB]>[Ec] [Ed]>[Ec] [EB]>[Ec] | [_Ed]>[Ec] [EB]>[Ec] [Ed]>[Ec] [EA]>[EG] | %12
w: |||
 [DF]2 (3[^C-E][CF][CG] [DF]2 (3[C-E][CF][CG] | [DF]4 [Fd]4 | [Af]3 [G_e] [Fd]>[E^c] [Fd]>[_E=c] | %15
w: |||
 [D_B]6 z2 | [G_Bg]3 [GBg] [FBf]2 [Bd]2 | [_Bcf]2 [Acf]2 [DFB]4- | [DFB]4 z4 |] %19
w: ||||
V:2
 ._B,,2 .D2 .B,,2 ._B,2 | .C,2 .A,2 .C,2 .A,2 | .G,2 .D2 .C,2 ._B,2 | F,>^F, G,>^G, .A,2 =F,2 | %4
 G,2 D2 ^F,2 E2 | F,2 D,2 G,,2 D,2 | C,2 _E,2 F,3 _B, | ._B,,2[K:treble] (3DDD .D2 .D2 | %8
 _B,,2 _B,2 B,,2 B,2 | _B,,2 (3_B,B,B, .D2 .D2 | .C,2 .C2 .C,2 .C2 | .F,,2 .A,2 .F,,2 .A,2 | %12
 _B,,2 _B,2 B,,2 B,2 | _B,,2 (3_B,B,B, .D2 .D2 | .F,2 ._E2 .F,2 .A,2 | .G,2 (3_B,B,B, .B,2 .B,2 | %16
 ^C3 C D2 F2 | _E2 E2 D4- | D4 z4 |] %19
V:3
 ._B,,,2 .[F,_B,]2 .B,,,2 .F,2 | .C,,2 .[C,F,]2 .F,,2 .[C,F,]2 | .G,,2 .[G,_B,]2 .C,,2 .[C,G,]2 | %3
 F,,>^F,, G,,>^G,, .A,,2 =F,,2 | G,,2 [G,_B,]2 ^F,,2 [^F,B,^C]2 | F,,2 D,,2 _B,,,2 D,,2 | %6
 C,,2 _E,,2 F,,3 _B,, | ._B,,,2 (3[F,_B,][F,B,][F,B,] .[F,B,]2 .[F,B,]2 | _B,,,2 G,2 B,,,2 G,2 | %9
 _B,,,2 (3F,F,F, .[F,_B,]2 .[F,B,]2 | z2 .[G,_B,]2 z2 .[G,B,]2 | z2 .F,2 z2 .F,2 | %12
 _B,,,2 G,2 B,,,2 G,2 | _B,,,2 (3F,F,F, .[F,_B,]2 .[F,B,]2 | .F,,2 .[F,A,]2 .F,,2 .F,2 | %15
 .G,,2 (3G,G,G, .G,2 .G,2 | E,3 E, F,2 F,2 | F,2 [F,,F,]2 [_B,,F,]4- | [B,,F,]4 z4 |] %19

